X:1
T:Ríl An Spidéal
R:reel
M:4/4
L:1/8
K:D
dB|:AF~F2 dFBF|ABdf eB~B2|AF~F2 dFBF|E2CD EFGB|
|AF~F2 dFBF|ABdf eBBA|g2ge fa~a2|1 ABdg fedB:|2 ABde fdde|]
|f2df afde|fgaf geeg|f2df a2fa|ABde fdde|
|f2df afde|fgaf geef|g2gb af~f2|e2ag eAde|
|f2df afde|fgaf geeg|f2df a2fa|ABde fddg|
|fa~a2 b2af|dfaf geef|g2gb af~f2|e2ag eAdB|